icon/ir/union.svg

<svg stroke-width="1.5" viewBox="0 0 24 24" fill="none" xmlns="http://www.w3.org/2000/svg" height="1em" width="1em">
  <path d="M15 9H20.4C20.7314 9 21 9.26863 21 9.6V20.4C21 20.7314 20.7314 21 20.4 21H9.6C9.26863 21 9 20.7314 9 20.4V15" stroke="currentColor" stroke-linecap="round" stroke-linejoin="round"/>
  <path d="M15 9V3.6C15 3.26863 14.7314 3 14.4 3H3.6C3.26863 3 3 3.26863 3 3.6V14.4C3 14.7314 3.26863 15 3.6 15H9" stroke="currentColor" stroke-linecap="round" stroke-linejoin="round"/>
</svg>

<svg width="24" height="24" stroke-width="1.5" fill="none" xmlns="http://www.w3.org/2000/svg"><path d="M15 9h5.4a.6.6 0 0 1 .6.6v10.8a.6.6 0 0 1-.6.6H9.6a.6.6 0 0 1-.6-.6V15" stroke="currentColor" stroke-linecap="round" stroke-linejoin="round"/><path d="M15 9V3.6a.6.6 0 0 0-.6-.6H3.6a.6.6 0 0 0-.6.6v10.8a.6.6 0 0 0 .6.6H9" stroke="currentColor" stroke-linecap="round" stroke-linejoin="round"/></svg>
